X: 1
T: Paddy Fahy's
M: 4/4
L: 1/8
R: reel
K: Cmaj
|:GF|(3EFG CD EFGA|~_B3G ~c3d|ecBd cBGF|(3DED B,D G,DGE|
F2EC DEFD|GABG ~c3d|ecBd cBGF|(3DED B,D C2:|
|:EF|Gc~c2 egde|cBGA _B2GF|DCB,G, CDEG|~c3A BGFD| 
Gc~c2 egdg|cBGA Bcdf|ecBd cBGF|(3DED B,D C2:|
